!!!!SEGMENT: pl-kk--kk-i-3--009-002_anonim--per-octavas-et-in-terra.krn
!!!cenid: 15xx:606
!!!COM: Anonim
!!!COM-rismid: pe30004985
!!!CDT:
!!!CNT:
!!!OPR: Per Octavas
!!!OTL: Et in terra
!!!OMV: 002
!!!PDT:
!!!AGN:
!!!SMS-siglum: PL-Kk
!!!SMS-shelfmark: Kk.I.3
!!!SMS-shelfwork: 009-002 M
!!!SMS-variant:
!!!SMS-altvar:
!!!NIFC-rismid: 1001145493
!!!URL-scan: http://repozytorium.nifc.pl/skany/pl-kk-nut--i-3
!!!ONB-nifc: UWAGA: Discantus (s. 49r-51v, skan 0051-0054), Tenor (s. 35v-37r, skan 0208-0209), Bassus (s. 46r-48v, skan 0349-0352)
**kern	**text	**kern	**text	**kern	**text
*part3	*part3	*part2	*part2	*part1	*part1
*staff3	*staff3	*staff2	*staff2	*staff1	*staff1
*Ibass	*	*Itenor	*	*Iempty	*
*I"Bassus	*	*I"Tenor	*	*I"Discantus	*
*I'B	*	*I'T	*	*I'A	*
*ICvox	*	*ICvox	*	*ICvox	*
*clefF4	*	*clefC4	*	*clefC3	*
*k[]	*	*k[]	*	*k[]	*
*C:	*	*C:	*	*C:	*
=1-	=1-	=1-	=1-	=1-	=1-
0ryy	.	1C/	Glo-	0ryy	.
.	.	1D/	.	.	.
=2-	=2-	=2-	=2-	=2-	=2-
0ryy	.	1F/	-ri-	0ryy	.
.	.	1F/	-a	.	.
=3-	=3-	=3-	=3-	=3-	=3-
0ryy	.	1F/	in	0ryy	.
.	.	1E/	ex-	.	.
=4-	=4-	=4-	=4-	=4-	=4-
0ryy	.	1F/	-cel-	0ryy	.
.	.	1G/	.	.	.
=5-	=5-	=5-	=5-	=5-	=5-
*	*	*lig	*	*	*
0ryy	.	1E/	-sis	0ryy	.
.	.	1F/	.	.	.
*	*	*Xlig	*	*	*
=6-	=6-	=6-	=6-	=6-	=6-
*	*	*lig	*	*	*
0ryy	.	1G/	de-	0ryy	.
.	.	1F/	.	.	.
=7-	=7-	=7-	=7-	=7-	=7-
0ryy	.	1E/	.	0ryy	.
*	*	*Xlig	*	*	*
!	!	!LO:SIC:v:t=custos D	!	!	!
.	.	1E/	-o	.	.
!	!	!LO:LB:g=original	!	!	!
=8-	=8-	=8-	=8-	=8-	=8-
*lig	*	*	*	*lig	*
!	!	!LO:TX:t=P:problem:czerwona kreska pseudotaktowa	!	!	!
1D\	Et	1D/	Et	1d\	Et
1C/	.	1G/,	.	1e\	.
*Xlig	*	*	*	*Xlig	*
=9-	=9-	=9-	=9-	=9-	=9-
*lig	*	*	*	*lig	*
1E\	in	1G/	in	1e\	in
1D\	.	1A\,	.	1f\	.
*Xlig	*	*	*	*Xlig	*
=10-	=10-	=10-	=10-	=10-	=10-
*lig	*	*	*	*	*
1D\	ter-	1A\	te-	2d/	ter-
.	.	.	.	1f\	.
1C/	.	1c\	.	.	.
.	.	.	.	2e/	-ra
*Xlig	*	*	*	*	*
=11-	=11-	=11-	=11-	=11-	=11-
!LO:SIC:v:t=custos AA	!	!	!	!	!
1D\	-ra	1A\,	-ra	1f\	.
!LO:LB:g=original	!	!	!	!	!
1AA/	Pax	1A\,	pax	1e\	pax
=12-	=12-	=12-	=12-	=12-	=12-
*	*	*lig	*	*	*
1E\	ho-	1G/	ho-	1e\	ho-
*	*	*	*	*2\right	*
2D/	.	1F/	.	2f\	.
2F/	.	.	.	1d\	-mi-
*	*	*Xlig	*	*	*
=13-	=13-	=13-	=13-	=13-	=13-
1E\	-mi-	1G/	.	.	.
.	.	.	.	2c/	.
!	!	!	!	!LO:SIC:v:t=custos f	!
1D\	.	1A\	-mi-	2d/	.
!	!	!	!	!LO:LB:g=original	!
.	.	.	.	1f\	-ni-
=14-	=14-	=14-	=14-	=14-	=14-
*	*	*lig	*	*	*
2E/	.	1G/	-ni-	.	.
2C/	.	.	.	1e\	.
*lig	*	*	*	*	*
1D\	-ni-	1F/	.	.	.
.	.	.	.	2d/	.
=15-	=15-	=15-	=15-	=15-	=15-
1AA/	.	1E/	.	0e\	-bus
*Xlig	*	*Xlig	*	*	*
1AA/	-bus	1E/,	-bus	.	.
=16-	=16-	=16-	=16-	=16-	=16-
1FF/	bo-	1F/	bo-	2d/	bo-
!	!	!	!	!LO:SIC:v:l:s==-nae	!
.	.	.	.	1c\	-ne
!LO:SIC:v:l:s==-nae	!	!	!	!	!
1GG/	-ne	1D/,	-nae	.	.
.	.	.	.	2B/	vo-
=17-	=17-	=17-	=17-	=17-	=17-
2AA/	vo-	1C/	vo-	2c/	-lun-
2C/	.	.	.	2e/	.
*	*	*	*	*lig	*
1BB/	.	1D/	-lun-	1d\	.
=18-	=18-	=18-	=18-	=18-	=18-
1AA/	-lun-	1E/	.	1c\	.
*	*	*	*	*Xlig	*
2C/	-ta-	1E/	-ta-	1c\	-ta-
!LO:SIC:v:t=custos E	!	!	!	!	!
2AA/	.	.	.	.	.
!LO:PB:g=original	!	!	!	!	!
=19-	=19-	=19-	=19-	=19-	=19-
!	!	!LO:SIC:v:t=custos E	!	!	!
1E\	-tis	1E/,	-tis	1B/	-tis
!	!	!LO:LB:g=original	!	!	!
2E/	lau-	1E/	lau-	2B/	lau-
2C/	.	.	.	1e\	-da-
=20-	=20-	=20-	=20-	=20-	=20-
*	*	*lig	*	*	*
1D\	-da-	1F/	-da-	.	.
.	.	.	.	2d/	.
1C/	.	1E/	.	1e\	-mus
*	*	*Xlig	*	*	*
=21-	=21-	=21-	=21-	=21-	=21-
!	!	!	!	!LO:SIC:v:t=custos d	!
2D/	-mus-	1D/	-m(us)	2f\	.
!	!	!	!	!LO:LB:g=original	!
2F/	.	.	.	1d\	te
1E\	-te	1E/	te	.	.
.	.	.	.	2c/	.
=22-	=22-	=22-	=22-	=22-	=22-
1D\	.	1F/,	.	1d\	be-
1GG/	be-	1D/	be-	1d\	-ne-
=23-	=23-	=23-	=23-	=23-	=23-
*	*	*lig	*	*	*
1GG/	-ne-	1D/	-ne-	1B/	.
1AA/	.	1C/	.	1c\	.
*	*	*Xlig	*	*	*
=24-	=24-	=24-	=24-	=24-	=24-
1D\	-di-	1D/	-di-	1A/	-di-
*lig	*	*	*	*lig	*
1BB/	ci-	1D/	-ci-	1d\	-ci-
=25-	=25-	=25-	=25-	=25-	=25-
1AA/	.	1E/	.	1c\	.
*Xlig	*	*	*	*Xlig	*
1AA/	-mus	1E/,	-m(us)	1c\	-mus
=26-	=26-	=26-	=26-	=26-	=26-
2AA/	te	1E/,	te	2c/	te
!LO:SIC:v:t=custos C	!	!	!	!	!
1F\	a-	.	.	1B/	a-
.	.	1G/	a-	.	.
!LO:LB:g=original	!	!	!	!	!
2C/	-do-	.	.	2c/	-do-
=27-	=27-	=27-	=27-	=27-	=27-
1BB/	.	1G/	-do-	1d\	-ra-
2AA/	.	1A\	.	1c\	.
1A\	-ra-	.	.	.	.
=28-	=28-	=28-	=28-	=28-	=28-
*	*	*lig	*	*	*
.	.	1A\	-ra-	1d\	.
2F/	.	.	.	.	.
!	!	!	!	!LO:SIC:v:t=custos f	!
1E\	.	1G/	.	1e\	.
*	*	*Xlig	*	*	*
!	!	!	!	!LO:LB:g=original	!
=29-	=29-	=29-	=29-	=29-	=29-
1D\	.	1A\	.	1f\	.
2C/	.	1c\	.	2e/	.
2FF/	.	.	.	1f\	.
=30-	=30-	=30-	=30-	=30-	=30-
*lig	*	*lig	*	*	*
1C/	-mus	1G/	-mus	.	.
.	.	.	.	2e/	-mus
!	!	!LO:SIC:v:t=custos F	!	!	!
1D\	.	1F/,	.	0f\	te
*Xlig	*	*Xlig	*	*	*
!	!	!LO:LB:g=original	!	!	!
=31-	=31-	=31-	=31-	=31-	=31-
1D\	te	1F/,	te	.	.
1A\	glo-	1F/	glo-	2c/	glo-
.	.	.	.	2d/	ri-
=32-	=32-	=32-	=32-	=32-	=32-
*2\right	*	*	*	*	*
2G\	-ri-	1E/	-ri-	1e\	-fi-
1E\	-fi-	.	.	.	.
.	.	1F/	-fi-	2c/	-ca-
2D/	.	.	.	2d/	.
=33-	=33-	=33-	=33-	=33-	=33-
1E\	.	1G/	.	2B/	.
.	.	.	.	1e\	.
!LO:SIC:v:t=custos D	!	!	!	!	!
*	*	*lig	*	*	*
1C/	.	1G/	-ca-	.	.
.	.	.	.	2e/	.
!LO:LB:g=original	!	!	!	!	!
=34-	=34-	=34-	=34-	=34-	=34-
2D/	.	1F/	.	1d\	.
1A\	-ca-	.	.	.	.
.	.	1E/	.	1e\	.
1G\	.	.	.	.	.
=35-	=35-	=35-	=35-	=35-	=35-
*	*	*	*	*lig	*
.	.	1D/	.	1f\	.
2F\	.	.	.	.	.
!	!	!	!	!LO:SIC:v:t=custos d	!
1G\	.	1C/	.	1e\	.
*	*	*Xlig	*	*Xlig	*
!	!	!	!	!LO:PB:g=original	!
=36-	=36-	=36-	=36-	=36-	=36-
1F\	.	1D/,	-m(us)	0d\	-mus
2F\	.	1D/	te	.	.
1D\	.	.	.	.	.
=37-	=37-	=37-	=37-	=37-	=37-
*	*	*lig	*	*	*
.	.	1G/	.	1e\	te
2C/	.	.	.	.	.
1D\	.	1F/	.	2d/	.
.	.	.	.	1f\	.
*	*	*Xlig	*	*	*
=38-	=38-	=38-	=38-	=38-	=38-
1C/	.	1G/	.	.	.
.	.	.	.	2e/	.
*	*	*lig	*	*	*
2FF/	.	1A\	.	1f\	.
1F\	-mus	.	.	.	.
=39-	=39-	=39-	=39-	=39-	=39-
.	.	1G/	.	2d/	.
2E/	.	.	.	2e/	.
2F/	.	1F/	.	2c/	.
1D\	.	.	.	1f\	.
*	*	*Xlig	*	*	*
=40-	=40-	=40-	=40-	=40-	=40-
*	*	*lig	*	*	*
.	.	1G/	.	.	.
!LO:SIC:v:t=custos D	!	!	!	!	!
2C/	.	.	.	1e\	.
!LO:LB:g=original	!	!	!	!	!
1D\	.	1F/	.	.	.
.	.	.	.	2d/	.
=41-	=41-	=41-	=41-	=41-	=41-
0AA/;	te	1E/	.	0e\;	.
*	*	*Xlig	*	*	*
.	.	1E/	.	.	.
=42-	=42-	=42-	=42-	=42-	=42-
*	*	*lig	*	*	*
!	!	!LO:TX:t=P:problem:czerwona kreska pseudotaktowa	!	!LO:SIC:v:t=custos d	!
0AA/	gra	1E/	Gra-	0A/	Gra-
.	.	1E/	.	.	.
*	*	*Xlig	*	*	*
!	!	!	!	!LO:LB:g=original	!
=43-	=43-	=43-	=43-	=43-	=43-
*lig	*	*	*	*lig	*
1BB/	ci-	1D/	-ti-	1d\	-ci-
1AA/	.	1E/	.	1c\	.
*Xlig	*	*	*	*Xlig	*
=44-	=44-	=44-	=44-	=44-	=44-
!	!	!LO:SIC:v:t=custos F	!	!	!
1AA/	-as	1E/,	-as	1c\	-as
!	!	!LO:LB:g=original	!	!	!
1D\	a-	1F/	a-	1d\	a-
=45-	=45-	=45-	=45-	=45-	=45-
1GG/	-gi-	1D/	-gi-	2d/	-gi-
.	.	.	.	1c\	-mus
*	*	*lig	*	*	*
1GG/	-mus	1D/	-mus	.	.
.	.	.	.	2B/	ti-
=46-	=46-	=46-	=46-	=46-	=46-
1AA/	ti-	1C/	.	2c/	.
.	.	.	.	2e/	.
*lig	*	*Xlig	*	*lig	*
1BB/	.	1D/	ti-	1d\	.
=47-	=47-	=47-	=47-	=47-	=47-
1AA/	.	1E/	.	1c\	.
*Xlig	*	*	*	*Xlig	*
1AA/	-bi	1E/	-bi	1c\,	-bi
=48-	=48-	=48-	=48-	=48-	=48-
1AA/	pro-	1C/	pro-	1c\	pro-
1GG/	-pter	1D/,	-pter	1B/	-pter
=49-	=49-	=49-	=49-	=49-	=49-
1FF/	ma-	1F/	ma-	1A/	ma-
*lig	*	*	*	*	*
1C/	-gna(m)	1E/	.	2G,/	-gna(m)
!	!	!	!	!LO:SIC:v:t=custos B	!
.	.	.	.	1c\	[glo]-
=50-	=50-	=50-	=50-	=50-	=50-
!LO:SIC:v:t=custos C	!	!	!	!	!
1D\,	.	1F/,	-gna(m)	.	.
!LO:LB:g=original	!	!	!	!LO:LB:g=original	!
.	.	.	.	2B/	.
*Xlig	*	*lig	*	*	*
1C/	glo-	1G/	glo-	1c\	-ri-
=51-	=51-	=51-	=51-	=51-	=51-
2FF/	-ri-	1F/	.	0c\	-am
1F\	-am	.	.	.	.
*	*	*Xlig	*	*	*
.	.	1G/	-ri-	.	.
2E/	.	.	.	.	.
=52-	=52-	=52-	=52-	=52-	=52-
1D\	.	1A\	.	2d/	.
.	.	.	.	1f\	.
*	*	*lig	*	*	*
2E/	.	1G/	-am	.	.
2C/	.	.	.	2e/	Tu-
=53-	=53-	=53-	=53-	=53-	=53-
*lig	*	*	*	*	*
1D\	tu-	1F/,	.	1d\	.
*	*	*Xlig	*	*	*
1AA/	.	1E/	tu-	0.c\;	-am
*Xlig	*	*	*	*	*
=54-	=54-	=54-	=54-	=54-	=54-
!	!	!LO:TX:t=P:problem:czerwona kreska pseudotaktowa	!	!	!
!	!	!LO:SIC:v:t=custos F	!	!	!
0AA/;	-am	0E/	-am	.	.
!	!	!LO:PB:g=original	!	!	!
=55-	=55-	=55-	=55-	=55-	=55-
1F\	Do-	1F/	Do-	1c\	Do-
2F\	-mi-	1D/	-mi-	1d\	-mi-
2G\	-ne	.	.	.	.
=56-	=56-	=56-	=56-	=56-	=56-
*	*	*lig	*	*	*
2A\	.	1D/	-ne	2d/	-ne
2F\	.	.	.	1f\	.
!LO:SIC:v:t=custos F	!	!	!	!	!
1G\	de-	1C/,	.	.	.
.	.	.	.	2e/	.
*	*	*Xlig	*	*	*
!LO:PB:g=original	!	!	!	!	!
=57-	=57-	=57-	=57-	=57-	=57-
*lig	*	*	*	*	*
!	!	!	!	!LO:SIC:v:t=custos B	!
1F\	.	1D/	de-	1d\	de-
!	!	!	!	!LO:LB:g=original	!
1E\	.	1E/	.	0B/	-us
*Xlig	*	*	*	*	*
=58-	=58-	=58-	=58-	=58-	=58-
1E\	-us	1E/,	-us	.	.
1C/	rex	1G/,	rex	1e\	rex
=59-	=59-	=59-	=59-	=59-	=59-
*lig	*	*	*	*	*
!LO:SIC:v:l:s=coe-	!	!	!	!	!
*	*	*lig	*	*lig	*
1C/	cel-	1G/	coe-	1e\	cel-
1D\	.	1F/	.	1f\	.
*Xlig	*	*Xlig	*	*Xlig	*
=60-	=60-	=60-	=60-	=60-	=60-
*lig	*	*	*	*	*
1C/	-le-	1G/	-le-	2e/	-le-
.	.	.	.	2c/	.
*	*	*lig	*	*	*
1FF/	.	1A\	.	2f\	.
.	.	.	.	2e/	.
*Xlig	*	*	*	*	*
=61-	=61-	=61-	=61-	=61-	=61-
1GG/	.	1G/	.	1d\	.
*	*	*Xlig	*	*	*
1C/	-stis	1E/,	-stis	1c\	-stis
=62-	=62-	=62-	=62-	=62-	=62-
*	*	*lig	*	*	*
0C/	de-	1G/	de-	0e\	de-
.	.	1G/	.	.	.
*	*	*Xlig	*	*	*
=63-	=63-	=63-	=63-	=63-	=63-
1D\	.	1F/	.	2A/	.
.	.	.	.	1d\	.
2AA/	.	1E/	.	.	.
2C/	.	.	.	2c/	.
=64-	=64-	=64-	=64-	=64-	=64-
*	*	*lig	*	*	*
1BB/	.	1D/	.	2d/	.
!	!	!	!	!LO:SIC:v:t=custos c	!
.	.	.	.	2G/	.
!	!	!	!	!LO:LB:g=original	!
1AA/	.	1C/	.	1c\	.
*	*	*Xlig	*	*	*
=65-	=65-	=65-	=65-	=65-	=65-
1GG/	-us	1D/,	-us	1B/	-[us
!LO:SIC:v:t=custos D	!	!	!	!	!
1GG/	Pa-	1D/	pa-	1B/	Pa]-
!LO:LB:g=original	!	!	!	!	!
=66-	=66-	=66-	=66-	=66-	=66-
*	*	*lig	*	*	*
0D\	.	1F/	.	1A/	.
.	.	1F/	.	2A/	.
.	.	.	.	2d/	.
*	*	*Xlig	*	*	*
=67-	=67-	=67-	=67-	=67-	=67-
!	!	!LO:SIC:v:t=custos A	!	!	!
1E\	.	1G/	.	2B/	.
.	.	.	.	2e/	.
!	!	!LO:LB:g=original	!	!	!
*	*	*lig	*	*	*
2F/	.	1A\	.	2c/	.
1D\	.	.	.	2d/	.
=68-	=68-	=68-	=68-	=68-	=68-
.	.	1G/	.	2B/	.
2C/	.	.	.	1c\	.
1D\	-ter	1F/	.	.	.
.	.	.	.	2B/	.
*	*	*Xlig	*	*	*
=69-	=69-	=69-	=69-	=69-	=69-
1C/	om-	1G/,	-ter	1c\	-ter
1C/	.	1G/	om-	1c\	om-
=70-	=70-	=70-	=70-	=70-	=70-
*	*	*lig	*	*	*
!	!	!	!	!LO:SIC:v:t=custos c	!
2FF/	.	1A\	.	1c\	.
1F\	.	.	.	.	.
!	!	!	!	!LO:PB:g=original	!
.	.	1G/	.	1c\	.
2E/	.	.	.	.	.
*	*	*Xlig	*	*	*
=71-	=71-	=71-	=71-	=71-	=71-
*	*	*lig	*	*	*
1D\	.	1F/	-ni-	1d\	.
2C/	.	1E/	.	2e/	-ni-
2AA/	.	.	.	2c/	.
*	*	*Xlig	*	*	*
=72-	=72-	=72-	=72-	=72-	=72-
1BB/	.	1D/	-po-	1d\	-po-
!	!	!	!	!LO:N:vis=0	!
1AA/	-po-	1E/	.	0.c\;	-tens
=73-	=73-	=73-	=73-	=73-	=73-
!LO:SIC:v:t=custos F	!	!LO:TX:t=P:problem:czerwona kreska pseudotaktowa	!	!	!
0AA/;	-tens	0E/	-tens	.	.
!LO:LB:g=original	!	!	!	!	!
=74-	=74-	=74-	=74-	=74-	=74-
*	*	*	*	*lig	*
1F\	do-	1F/	Do-	1c\	Do-
2F/	-mi-	1D/	-mi-	1d\	.
1D\	-ne	.	.	.	.
*	*	*	*	*Xlig	*
=75-	=75-	=75-	=75-	=75-	=75-
*	*	*lig	*	*	*
.	.	1D/	-ne	2A/	-mi-
2F/	.	.	.	2B/	.
1E\	.	1C/,	.	2c/	-ne
.	.	.	.	1G/	fi-
*	*	*Xlig	*	*	*
=76-	=76-	=76-	=76-	=76-	=76-
*lig	*	*	*	*	*
1D\	fi-	1D/	fi-	.	.
.	.	.	.	2F/	-li
1C/	.	1E/	.	1G/	.
*Xlig	*	*	*	*	*
=77-	=77-	=77-	=77-	=77-	=77-
!	!	!	!	!LO:SIC:v:t=custos c	!
1C/	-li	1E/,	-li	2G/	.
!	!	!	!	!LO:LB:g=original	!
.	.	.	.	2c/	.
2GG/	v-	1G/	v-	2B/	v-
2C/	-ni-	.	.	2c/	-ni-
=78-	=78-	=78-	=78-	=78-	=78-
*	*	*lig	*	*	*
2BB/	-ge-	1G/	-ni-	2d/	-ge-
2C/	.	.	.	2e\	.
1D\	-ni-	1F/	.	1f\	.
*	*	*Xlig	*	*	*
=79-	=79-	=79-	=79-	=79-	=79-
1C/	-te	1G/	-ge-	2e/	.
.	.	.	.	2c/	.
*lig	*	*lig	*	*	*
1FF/	Je-	1A\	.	1f\	.
=80-	=80-	=80-	=80-	=80-	=80-
!	!	!LO:SIC:v:t=custos E	!	!	!
1GG/	.	1G/	.	1d\	.
!	!	!LO:LB;g=original	!	!	!
*Xlig	*	*Xlig	*	*	*
1AA/	.	1E/	-ni-	1c\	-ni-
=81-	=81-	=81-	=81-	=81-	=81-
!LO:SIC:v:t=custos C	!	!	!	!	!
1C/	-su	1E/,	-te	1c\	-te
!LO:LB:g=original	!	!	!	!	!
*	*	*lig	*	*	*
0C/	Cri-	1G/	Je-	0e\	Je-
=82-	=82-	=82-	=82-	=82-	=82-
.	.	1G/	.	.	.
*	*	*Xlig	*	*	*
1D\	.	1F/	.	2A/	.
.	.	.	.	1d\	.
=83-	=83-	=83-	=83-	=83-	=83-
2AA/	.	1E/	.	.	.
2C/	.	.	.	2c/	.
*	*	*lig	*	*	*
!	!	!	!	!LO:SIC:v:t=custos G	!
1BB/	.	1D/	-su	2d/	.
!	!	!	!	!LO:LB:g=original	!
.	.	.	.	2G/	.
=84-	=84-	=84-	=84-	=84-	=84-
1AA/	.	1C/	.	1c\	.
*	*	*Xlig	*	*	*
1GG/	-ste	1D/,	.	1B/	-su
=85-	=85-	=85-	=85-	=85-	=85-
1GG/	al-	1D/	Chri-	1B/	cri-
*	*	*lig	*	*	*
0D\	.	1F/	.	1A/	.
=86-	=86-	=86-	=86-	=86-	=86-
.	.	1F/	.	2A/	.
.	.	.	.	2d/	.
*	*	*Xlig	*	*	*
1E\	.	1G/	.	2B/	.
.	.	.	.	2e\	.
=87-	=87-	=87-	=87-	=87-	=87-
*	*	*lig	*	*	*
2F/	.	1A\	.	2c/	.
1D\	.	.	.	2d/	.
.	.	1G/	.	2B/	.
2C/	.	.	.	1c\	.
=88-	=88-	=88-	=88-	=88-	=88-
1D\	.	1F/	.	.	.
.	.	.	.	2B/	.
*	*	*Xlig	*	*	*
*	*	*lig	*	*	*
1C/	.	1G/	.	1c\	.
=89-	=89-	=89-	=89-	=89-	=89-
1C/	.	1G/	.	1c\	-ste
*	*	*Xlig	*	*	*
!LO:SIC:v:t=custos F	!	!	!	!	!
*	*	*lig	*	*	*
!	!	!	!	!LO:SIC:v:t=custos d	!
2FF/	.	1A\	.	2c/	al-
!LO:LB:g=original	!	!	!	!LO:LB:g=original	!
1F\	.	.	.	1d\	.
=90-	=90-	=90-	=90-	=90-	=90-
.	.	1G/	.	.	.
2E/	.	.	.	1c\	.
*lig	*	*Xlig	*	*	*
*	*	*lig	*	*	*
1D\	-tis-	1F/	.	.	.
.	.	.	.	2B/	.
=91-	=91-	=91-	=91-	=91-	=91-
1C/	.	1E/	.	1c\	-tis-
*Xlig	*	*Xlig	*	*	*
*lig	*	*	*	*	*
1GG/	-si-	1D/	.	1B/	.
=92-	=92-	=92-	=92-	=92-	=92-
1C/	.	1E/	.	1c\	-si-
*Xlig	*	*	*	*	*
!	!	!LO:TX:t=P:problem:czerwona kreska pseudotaktowa	!	!	!
1C/;	-me	1E/	-ſte	1c\;	-me
=93-	=93-	=93-	=93-	=93-	=93-
1F\	Do-	1F/	Do-	1c\	Do-
!	!	!LO:SIC:v:t=custos D	!	!	!
2F/	-mi-	1D/	-mi-	1d\	-mi-
1D\	-ne	.	.	.	.
!	!	!LO:LB:g=original	!	!	!
=94-	=94-	=94-	=94-	=94-	=94-
*	*	*lig	*	*	*
.	.	1D/	-ne	2A/	-ne
2F\	.	.	.	2B/	.
1E\	.	1C/,	.	2c/	.
.	.	.	.	1G/	.
*	*	*Xlig	*	*	*
=95-	=95-	=95-	=95-	=95-	=95-
*lig	*	*	*	*	*
1D\	de-	1D/	de-	.	.
!	!	!	!	!LO:SIC:v:t=custos G	!
.	.	.	.	2F/	de-
!	!	!	!	!LO:LB:g=original	!
1C/	.	1E/	.	1G/	.
*Xlig	*	*	*	*	*
=96-	=96-	=96-	=96-	=96-	=96-
1C/	-us	1E/,	-us	2G/	-us
.	.	.	.	2c/	a-
2GG/	a-	1G/	A-	2d/	-gnus-
1C/	-gnus	.	.	1e\	.
=97-	=97-	=97-	=97-	=97-	=97-
.	.	1G/	-gnus	.	.
!LO:SIC:v:t=custos AA	!	!	!	!	!
2BB/	.	.	.	2d/	.
!LO:PB:g=original	!	!	!	!	!
1AA/	.	1A\,	.	1c\	-de-
=98-	=98-	=98-	=98-	=98-	=98-
2AA/	.	1A\	de-	2c/	.
2FF/	.	.	.	1f\	.
1C/	de-	1c\	.	.	.
.	.	.	.	2e/	.
=99-	=99-	=99-	=99-	=99-	=99-
2FF/	-i	1A\,	-i	1f\	-i
1F\	fi-	.	.	.	.
*	*	*lig	*	*	*
.	.	1A\	fi-	2c/	fi-
2D/	-li-	.	.	2f\	.
=100-	=100-	=100-	=100-	=100-	=100-
2E/	-us	1G/	.	1e\	.
2C/	.	.	.	.	.
1D\	.	1F/	.	2d/	.
!	!	!	!	!LO:SIC:v:t=custos e	!
.	.	.	.	1f\	-li-
*	*	*Xlig	*	*	*
=101-	=101-	=101-	=101-	=101-	=101-
1C/	.	1G/	-li-	.	.
!	!	!	!	!LO:PB:g=original	!
.	.	.	.	2e/	.
1BB/	.	1G/,	-vs	1d\	Pa-
=102-	=102-	=102-	=102-	=102-	=102-
2AA/	.	1A\	Pa-	2c/	.
2D/	Pa-	.	.	2f\	.
*	*	*lig	*	*	*
2C/	.	1A\	.	2e\	.
2F/	.	.	.	1d\	.
=103-	=103-	=103-	=103-	=103-	=103-
!LO:SIC:v:t=custos D	!	!	!	!	!
1E\	.	1G/	.	.	.
.	.	.	.	2c/	.
!LO:LB:g=original	!	!	!	!	!
1D\	.	1F/	.	1d\	-tris
*	*	*Xlig	*	*	*
=104-	=104-	=104-	=104-	=104-	=104-
2GG/	.	1G/	.	2d/	Qui
2C/	.	.	.	2e/	tol-
2AA/	.	1A\	.	2c/	.
2D/	.	.	.	1d\	.
=105-	=105-	=105-	=105-	=105-	=105-
*	*	*lig	*	*	*
2GG/	.	1G/	-tris	.	.
2C/	-tris	.	.	2e/	.
1D\	.	1F/	.	1d\	[lis]
=106-	=106-	=106-	=106-	=106-	=106-
!	!	!LO:SIC:v:t=custos E	!	!	!
1AA/	.	1E/,	.	1c\	Qui
!	!	!LO:LB:g=original	!	!	!
*	*	*Xlig	*	*	*
1C/	Qui	1E/	Qui	2c/	tol-
!	!	!	!	!LO:SIC:v:t=custos G	!
.	.	.	.	1A/	.
=107-	=107-	=107-	=107-	=107-	=107-
1BB/	tol-	1D/	.	.	.
!	!	!	!	!LO:LB:g=original	!
.	.	.	.	2G/	.
1AA/	.	1E/	tol-	1A/	-lis
=108-	=108-	=108-	=108-	=108-	=108-
1AA/	-lis	1E/,	-lis	1A/	Pec-
*lig	*	*	*	*	*
1C/	pec-	1E/	pec-	2G/	.
.	.	.	.	1c\	-ca-
=109-	=109-	=109-	=109-	=109-	=109-
1D\	.	1D/	.	.	.
.	.	.	.	2B/	.
*Xlig	*	*	*	*	*
2C/	-ca-	1E/	-ca-	1c\	-ta
!LO:SIC:v:t=custos A	!	!	!	!	!
2G\	-ta	.	.	.	.
!LO:LB:g=original	!	!	!	!	!
=110-	=110-	=110-	=110-	=110-	=110-
1A\	.	1F/	-ta	1A/	.
2G\	.	1E/	.	2B/	mun-
2E/	.	.	.	2c/	.
=111-	=111-	=111-	=111-	=111-	=111-
1F\	mu(n)-	1D/	.	1d\	.
1E\	.	1C/,	.	1e\	.
=112-	=112-	=112-	=112-	=112-	=112-
2F\	.	1D/	mun-	1d\	.
1D\	.	.	.	.	.
.	.	1E/	.	2B/	.
2C/	.	.	.	2c/	.
=113-	=113-	=113-	=113-	=113-	=113-
1D\	-di	1F/,	-di	1A/	-di
*	*	*lig	*	*	*
1GG/	mi-	1G/	mi-	1B/	.
!	!	!	!	!LO:LB:g=original	!
=114-	=114-	=114-	=114-	=114-	=114-
*lig	*	*	*	*lig	*
1G\	-se-	1G/	.	1e\	mi-
*	*	*Xlig	*	*	*
1A\	.	1F/	.	1d\	.
*Xlig	*	*	*	*Xlig	*
=115-	=115-	=115-	=115-	=115-	=115-
*lig	*	*	*	*	*
1E\	-re-	1G/	-ſe-	0c\	-se-
1F\	.	1A\	-re-	.	.
*Xlig	*	*	*	*	*
=116-	=116-	=116-	=116-	=116-	=116-
*lig	*	*	*	*	*
1C/	-re	1G/	-re	1c\	-re-
1D\	.	1F/	.	2A/	.
.	.	.	.	1d\	.
*Xlig	*	*	*	*	*
=117-	=117-	=117-	=117-	=117-	=117-
!LO:SIC:v:t=custos BB	!	!	!	!	!
*	*	*lig	*	*	*
1AA/	.	1E/	no-	.	.
.	.	.	.	2c/	.
!LO:LB:g=original	!	!	!	!	!
*lig	*	*	*	*	*
1BB/	no-	1E/	.	1d\	-re
*	*	*Xlig	*	*	*
=118-	=118-	=118-	=118-	=118-	=118-
*	*	*lig	*	*	*
1AA/	.	1E/	-bis	1c\	no-
*Xlig	*	*	*	*	*
1AA/	-bis	1E/	.	1c\	-bis
*	*	*Xlig	*	*	*
!	!	!LO:PB:g=original	!	!	!
=119-	=119-	=119-	=119-	=119-	=119-
1C/	Qui	1E/	Qvi	2c/	Qui
.	.	.	.	1A/	tol-
*lig	*	*	*	*	*
1BB/	tol-	1D/	tol-	.	.
.	.	.	.	2G/	.
=120-	=120-	=120-	=120-	=120-	=120-
1AA/	.	1E/	.	1A/	.
*Xlig	*	*	*	*	*
1AA/	-lis	1E/	-lis	1A/	-lis
=121-	=121-	=121-	=121-	=121-	=121-
*lig	*	*lig	*	*	*
1C/	Pec-	1E/	pec-	2G/	pec-
.	.	.	.	1c\	-ca-
1D\	.	1D/	.	.	.
!	!	!	!	!LO:LB:g=original	!
.	.	.	.	2B/	.
*Xlig	*	*Xlig	*	*	*
=122-	=122-	=122-	=122-	=122-	=122-
2C/	-ca-	1E/	.	1c\	-ta
2G\	.	.	.	.	.
*	*	*lig	*	*	*
1A\	-ta	1F/	-ca-	1A/	mun-
=123-	=123-	=123-	=123-	=123-	=123-
2G\	.	1E/	.	2B/	.
2E/	.	.	.	2c/	.
*	*	*Xlig	*	*	*
*	*	*lig	*	*	*
1F\	.	1D/	-ta	1d\	.
=124-	=124-	=124-	=124-	=124-	=124-
2E/	.	1C/,	.	1e\	-di
1G\	mu(n)-	.	.	.	.
*	*	*Xlig	*	*lig	*
.	.	1D/	m(un)-	1f\	.
!LO:SIC:v:t=custos G	!	!	!	!	!
2F/	.	.	.	.	.
!LO:LB:g=original	!	!	!	!	!
=125-	=125-	=125-	=125-	=125-	=125-
1G\	-di	1C/,	-di	1e\,	.
*	*	*	*	*Xlig	*
1G\	sus-	1C/	ſus-	1e\	sus-
=126-	=126-	=126-	=126-	=126-	=126-
*lig	*	*	*	*lig	*
1F\	-ci-	1D/	-ci-	1d\	-ci-
1A\	.	1F/	.	1c\	.
*Xlig	*	*	*	*Xlig	*
=127-	=127-	=127-	=127-	=127-	=127-
2F/	-pe	1F/,	-pe	2c/	-pe
1D\	de-	.	.	2d/	.
.	.	1E/	de-	1e\	de-
2C/	-pre-	.	.	.	.
=128-	=128-	=128-	=128-	=128-	=128-
1D\	.	1F/	-pre-	1d\	-pre-
!	!	!LO:SIC:v:t=custos F	!	!	!
1GG/	-ca-	1G/	-ca-	2d/	-ca-
!	!	!	!	!LO:SIC:v:l:s==-ti-	!
.	.	.	.	2B/	-ci-
*	*	*clefC5	*	*	*
!	!	!LO:LB:g=original	!	!LO:LB:g=original	!
=129-	=129-	=129-	=129-	=129-	=129-
!LO:SIC:v:l:s=-ti-	!	!	!	!	!
1AA/	-ci-	1F\	-ti-	1c\	-o-
2GG/	.	1G\	-o-	2B/	-ne(m)
1G\	-o-	.	.	2c/	.
=130-	=130-	=130-	=130-	=130-	=130-
.	.	1A\	-ne(m)	1d\	.
2F\	.	.	.	.	.
2G\	.	1G\,	.	1c\	n(ost)-
2GG/	-nem	.	.	.	.
=131-	=131-	=131-	=131-	=131-	=131-
1C/	n(ost)-	1E/	no-	0c\;	-ram
!	!	!LO:TX:t=P:problem:czerwona kreska pseudotaktowa	!	!	!
1C/;	-ram	1E/	-ſtra(m)	.	.
!LO:PB:g=original	!	!	!	!	!
=132-	=132-	=132-	=132-	=132-	=132-
1G\	Qui	1G\,	Qvi	1d\	Qui
2E/	se-	1G\	ſe-	2e/	se-
2G/	.	.	.	1d\	.
=133-	=133-	=133-	=133-	=133-	=133-
1F\	.	1A\	.	.	.
.	.	.	.	2c/	.
*lig	*	*	*	*	*
1D\	-des	1B\	.	1d\	.
=134-	=134-	=134-	=134-	=134-	=134-
1C/	.	1c\	.	1e\	.
*Xlig	*	*	*	*	*
1D\,	.	1A\,	-des	1f\	-des
=135-	=135-	=135-	=135-	=135-	=135-
2GG/	ad	1G\,	ad	2d/	a
1G\	dex-	.	.	1e\	dex-
.	.	1A\	dex-	.	.
!	!	!	!	!LO:PB:g=original	!
2F/	-te-	.	.	2f\	.
=136-	=136-	=136-	=136-	=136-	=136-
1G\	-ra(m)	1G\	-te-	2d\	.
.	.	.	.	1e\	.
2D/	Pa-	1F\,	-ra(m)	.	.
2F/	.	.	.	1d\	-te-
=137-	=137-	=137-	=137-	=137-	=137-
1E\	.	1G\	pa-	.	.
.	.	.	.	2c/	-ram
1D\	-tris	1A\	.	2d/	.
.	.	.	.	2f\	Pa-
=138-	=138-	=138-	=138-	=138-	=138-
!	!	!LO:SIC:v:t=custos G	!	!	!
2C/	mi-	1A\,	-tris	2e/	-tris
!LO:SIC:v:t=custos E	!	!	!	!	!
2D/	.	.	.	2f\	.
!LO:LB:g=original	!	!LO:LB;g=original	!	!	!
2E/	-se-	1G\	mi-	2g\	mi-
2C/	.	.	.	1e\	-se-
=139-	=139-	=139-	=139-	=139-	=139-
*	*	*lig	*	*	*
1E\	-re-	1G\	-ſe-	.	.
.	.	.	.	2c/	.
1D\	-re	1F\	.	1d\	-re-
*	*	*Xlig	*	*	*
=140-	=140-	=140-	=140-	=140-	=140-
2BB/	.	1G\	-re-	2d/	-re
2C/	.	.	.	1c\	.
2AA/	.	1A\	.	.	.
1D\	.	.	.	2d/	.
=141-	=141-	=141-	=141-	=141-	=141-
*	*	*lig	*	*	*
.	.	1G\	-re	1e\	.
2C/	.	.	.	.	.
!	!	!	!	!LO:SIC:v:t=custos c	!
1D\	.	1F\	.	1A/	.
!	!	!	!	!LO:LB:g=original	!
=142-	=142-	=142-	=142-	=142-	=142-
2AA/	.	1E/,	.	1c\	.
2C/	.	.	.	.	.
*	*	*Xlig	*	*lig	*
1BB/	.	1D/	no-	1d\	no-
=143-	=143-	=143-	=143-	=143-	=143-
1AA/	no-	1E/	.	1c\	.
*	*	*	*	*Xlig	*
!LO:SIC:v:t=custos F	!	!LO:TX:t=P:problem:czerwona kreska pseudotaktowa	!	!	!
1AA/;	-bis	1E/	-bis	1c;\	-bis
!LO:LB:g=original	!	!	!	!	!
=144||-	=144||-	=144||-	=144||-	=144||-	=144||-
*lig	*	*	*	*	*
1F\	Quo-	1F\	Qvo-	1c\	Quo-
1A\	.	1D/	-ni-	0d\	-ni-
*Xlig	*	*	*	*	*
=145-	=145-	=145-	=145-	=145-	=145-
1A\	-ni-	1D/	-am	.	.
1A\	-am	1F\,	.	2d/	-am
.	.	.	.	1c\	.
=146-	=146-	=146-	=146-	=146-	=146-
*lig	*	*lig	*	*	*
1F\	tu	1D/	tu	.	.
.	.	.	.	2B/	tu
1G\	.	1C/	.	1c\	.
*Xlig	*	*Xlig	*	*	*
=147-	=147-	=147-	=147-	=147-	=147-
1F\	so-	1D/	ſo-	1A/	so-
2D/	-lus	1D/	-lus	2A/	-lus
2F/	.	.	.	1d\	san-
=148-	=148-	=148-	=148-	=148-	=148-
1E\	san-	1E/,	.	.	.
.	.	.	.	2c/	.
1D\	ct(us)	1F\	ſan-	1d\	.
=149-	=149-	=149-	=149-	=149-	=149-
*lig	*	*	*	*	*
1AA/	.	1E/	.	1c\	.
!	!	!LO:SIC:v:t=custos G	!	!LO:SIC:v:t=custos c	!
1D\	.	1F\	-ct(us)	1A/	-ctus
*Xlig	*	*	*	*	*
!	!	!LO:LB;g=original	!	!LO:LB:g=original	!
=150-	=150-	=150-	=150-	=150-	=150-
*lig	*	*lig	*	*	*
1C/	tu	1G\	Tu	1c\	Tu
1D\	.	1F\,	.	2A/	.
.	.	.	.	1d\	so-
*Xlig	*	*Xlig	*	*	*
=151-	=151-	=151-	=151-	=151-	=151-
2GG/	so-	1G\	ſo-	.	.
1G\	.	.	.	2c/	.
.	.	1A\	-lus	1d\	-lus
2F/	.	.	.	.	.
=152-	=152-	=152-	=152-	=152-	=152-
2G\	.	1G\,	.	2B/	do-
!LO:SIC:v:t=custos D	!	!	!	!	!
2E/	-lus	.	.	2G/	.
!LO:LB:g=original	!	!	!	!	!
*lig	*	*lig	*	*	*
1D\	do-	1F\	do-	2A/	.
.	.	.	.	2B/	.
=153-	=153-	=153-	=153-	=153-	=153-
1C/	.	1E/	.	2G/	.
.	.	.	.	1c\	.
*Xlig	*	*Xlig	*	*	*
*lig	*	*	*	*	*
1D\	-mi-	1D/	-mi-	.	.
.	.	.	.	2B/	-mi-
=154-	=154-	=154-	=154-	=154-	=154-
1C/	.	1E/	.	0c\	-nus
*Xlig	*	*	*	*	*
1C/	-nus	1E/,	-nus	.	.
=155-	=155-	=155-	=155-	=155-	=155-
1C/	Tu	1E/,	tu	1c\	tu
1D\	so-	1F\	ſo-	2A/	so-
.	.	.	.	1d\	-lus
=156-	=156-	=156-	=156-	=156-	=156-
1F\	-lus	1D/,	-lus	.	.
.	.	.	.	1c\	al-
*lig	*	*lig	*	*	*
1F\	al-	1D/	al-	.	.
!	!	!	!	!LO:SIC:v:t=custos c	!
.	.	.	.	2B/	-tis-
!	!	!	!	!LO:LB:g=original	!
=157-	=157-	=157-	=157-	=157-	=157-
1E\	.	1C/	.	1c\	.
*Xlig	*	*Xlig	*	*	*
1D\	-tis-	1D/	-tiſ-	1A/	.
=158-	=158-	=158-	=158-	=158-	=158-
!LO:N:vis=00	!	!	!	!	!
*	*	*	*	*lig	*
1D\	-ſi-	1D/	-ſi-	1d\	-si-
0AA/	.	1E/	.	1c\	.
*	*	*	*	*Xlig	*
=159-	=159-	=159-	=159-	=159-	=159-
.	.	1E/	-mus	1c\	-mus
*	*	*lig	*	*	*
0GG/	-mus	1G\	Je-	0B/	Je-
=160-	=160-	=160-	=160-	=160-	=160-
.	.	1G\	.	.	.
*	*	*Xlig	*	*	*
0AA/	Je-	1F\	.	0c\	.
=161-	=161-	=161-	=161-	=161-	=161-
.	.	1E/	.	.	.
*lig	*	*	*	*lig	*
1BB/	.	1D/	.	1d\	.
=162-	=162-	=162-	=162-	=162-	=162-
1AA/	.	1C/	.	1e\	.
*Xlig	*	*	*	*Xlig	*
!	!	!LO:SIC:v:t=custos D	!	!	!
2BB/	.	1D/,	-ſu	2d/	.
2AA/	-su	.	.	1c\	-su
!	!	!LO:LB:g=original	!	!	!
=163-	=163-	=163-	=163-	=163-	=163-
1GG/	.	1D/	Chri-	.	.
.	.	.	.	2B/	.
!LO:SIC:v:t=custos C	!	!	!	!	!
*	*	*lig	*	*	*
0FF/	cri-	1F\	.	0c\	Cri-
=164-	=164-	=164-	=164-	=164-	=164-
.	.	1F\	.	.	.
!LO:LB:g=original	!	!	!	!	!
*	*	*Xlig	*	*	*
1C/	.	1G\	.	1c\	.
=165-	=165-	=165-	=165-	=165-	=165-
2FF/	.	1A\	.	2c/	.
1F\	.	.	.	1d\	.
.	.	1G\	.	.	.
2E/	.	.	.	2c/	.
=166-	=166-	=166-	=166-	=166-	=166-
*lig	*	*	*	*	*
!	!	!	!	!LO:SIC:v:t=custos f	!
1D\	.	1F\	.	2d/	.
!	!	!	!	!LO:LB:g=original	!
.	.	.	.	1f\	.
1C/	.	1G\	.	.	.
.	.	.	.	1e\	.
*Xlig	*	*	*	*	*
=167-	=167-	=167-	=167-	=167-	=167-
*lig	*	*	*	*	*
1D\	.	1F\	.	.	.
.	.	.	.	2d/	.
!	!	!LO:TX:t=P:problem:czerwona kreska pseudotaktowa	!	!	!
1AA/	.	0.E/	-ſte	2c/	.
.	.	.	.	2A/	.
*Xlig	*	*	*	*	*
=168-	=168-	=168-	=168-	=168-	=168-
0E\;	-ste	.	.	0B/;	-ste
=169-	=169-	=169-	=169-	=169-	=169-
1GG/	Cum	1G\,	Cvm	1d\	Cum
2GG/	san-	1G\	ſan-	2d/	san-
1G\	.	.	.	1e\	.
=170-	=170-	=170-	=170-	=170-	=170-
.	.	1A\	.	.	.
2F\	.	.	.	2f\	.
1G\	.	1B\	.	1d\	.
=171-	=171-	=171-	=171-	=171-	=171-
1C/	.	1c\	.	1e\	.
*lig	*	*lig	*	*	*
1D\	-cto	1A\	-cto	2f\	-cto
.	.	.	.	1d\	.
=172-	=172-	=172-	=172-	=172-	=172-
!LO:SIC:v:t=custos D	!	!	!	!	!
1E\	.	1G\	.	.	.
.	.	.	.	2c/	.
!LO:PB:g=original	!	!	!	!	!
*Xlig	*	*	*	*	*
!	!	!	!	!LO:SIC:v:t=custos d	!
1D\	Spi-	1F\,	.	1d\	.
*	*	*Xlig	*	*	*
!	!	!	!	!LO:PB:g=original	!
=173-	=173-	=173-	=173-	=173-	=173-
1GG/	.	1G\	Spi-	2d/	spi-
.	.	.	.	1g\	.
1D\	-ri-	1A\	-ri-	.	.
.	.	.	.	2f\	.
=174-	=174-	=174-	=174-	=174-	=174-
*	*	*lig	*	*	*
2E/	.	1G\	.	1e\	.
2C/	.	.	.	.	.
*lig	*	*	*	*	*
1D\	-tu	1F\	.	1d\	.
=175-	=175-	=175-	=175-	=175-	=175-
1AA/	.	1E/	.	1e\	ri-
*Xlig	*	*Xlig	*	*	*
0AA/	in	1E/,	-tu	2e/	-tu
.	.	.	.	1c\	in
=176-	=176-	=176-	=176-	=176-	=176-
.	.	1C/,	in	.	.
.	.	.	.	2c/	glo-
!	!	!LO:PB:g=original	!	!	!
*lig	*	*	*	*	*
1AA/	glo-	1C/	glo-	1c\	.
=177-	=177-	=177-	=177-	=177-	=177-
*	*	*	*	*lig	*
1GG/	.	1D/	.	1B/	.
*Xlig	*	*	*	*	*
1FF/	.	1F\	.	1A/	.
*	*	*	*	*Xlig	*
=178-	=178-	=178-	=178-	=178-	=178-
1FF/	-ri-	1F\	-ri-	1A/	-ri-
2FF/	-a	1F\,	-a	1c\	-a
1F\	de-	.	.	.	.
=179-	=179-	=179-	=179-	=179-	=179-
*	*	*lig	*	*	*
.	.	1F\	de-	2c/	de-
2D/	.	.	.	2d/	.
2C/	.	1E/	.	2e/	.
!LO:SIC:v:t=custos BB	!	!	!	!LO:SIC:v:t=custos d	!
2AA/	.	.	.	2c/	i
!LO:LB:g=original	!	!	!	!	!
*	*	*Xlig	*	*	*
!	!	!	!	!LO:LB:g=original	!
=180-	=180-	=180-	=180-	=180-	=180-
1BB/	-i	1D/,	-i	1d\	.
*	*	*lig	*	*	*
2AA/	Pa-	1F\	Pa-	1c\	Pa-
2FF/	.	.	.	.	.
=181-	=181-	=181-	=181-	=181-	=181-
*lig	*	*	*	*	*
1C/	.	1E/	.	1c\	.
1AA/	.	1C/	.	1c\	.
*Xlig	*	*Xlig	*	*	*
=182-	=182-	=182-	=182-	=182-	=182-
*	*	*	*	*lig	*
1GG/	.	1D/	.	1B/	.
1C/	.	1E/	.	1G/	.
*	*	*	*	*Xlig	*
=183-	=183-	=183-	=183-	=183-	=183-
*	*	*lig	*	*	*
2FF/	.	1F\	.	2A/	.
1F\	.	.	.	1c\	.
.	.	1D/	.	.	.
2D/	.	.	.	2B/	.
=184-	=184-	=184-	=184-	=184-	=184-
2E\	.	1C/	.	1c\	.
1G\	.	.	.	.	.
*	*	*Xlig	*	*	*
.	.	1D/,	-tris	1A/	-tris
2F\	-tris	.	.	.	.
=185-	=185-	=185-	=185-	=185-	=185-
*	*	*	*	*lig	*
1G\	.	1E/	A-	1G/	A-
*lig	*	*lig	*	*	*
1GG/	A-	1G\	.	1B/	.
*	*	*	*	*Xlig	*
=186-	=186-	=186-	=186-	=186-	=186-
*	*	*	*	*lig	*
1C/	.	1E/	.	1c\	.
*Xlig	*	*Xlig	*	*	*
!LO:SIC:v:t=custos AA	!	!	!	!	!
1BB/	.	1G\	.	1d\	.
*	*	*	*	*Xlig	*
!LO:LB:g=original	!	!	!	!	!
=187-	=187-	=187-	=187-	=187-	=187-
*	*	*lig	*	*	*
1AA/	.	1A\	.	2c/	.
.	.	.	.	1e\	.
2E/	.	1G\	.	.	.
!	!	!	!	!LO:SIC:v:t=custos d	!
2C/	.	.	.	2e/	.
!	!	!	!	!LO:LB:g=original	!
=188-	=188-	=188-	=188-	=188-	=188-
1D\	.	1F\	.	1d\	.
*	*	*Xlig	*	*	*
2GG/	.	1G\	.	2d/	.
2C/	.	.	.	2e/	.
=189-	=189-	=189-	=189-	=189-	=189-
2AA/	.	1F\	.	2c/	.
1D\	.	.	.	2d/	.
.	.	1E/	.	1e\	.
2C/	.	.	.	.	.
=190-	=190-	=190-	=190-	=190-	=190-
1D\	.	1D/	.	0f\	.
*	*	*lig	*	*	*
1D\	.	1D/	.	.	.
=191-	=191-	=191-	=191-	=191-	=191-
1G\	.	1E/	.	1e\	.
*	*	*Xlig	*	*	*
2G\	.	1E/	.	1g\	.
2F/	.	.	.	.	.
=192-	=192-	=192-	=192-	=192-	=192-
!LO:SIC:v:t=custos D	!	!	!	!	!
2E/	.	00.E/	-men	2g\	.
!LO:LB:g=original	!	!	!	!	!
2D/	.	.	.	2f\	.
2C/	.	.	.	2e/	.
2BB/	.	.	.	2d/	.
=193-	=193-	=193-	=193-	=193-	=193-
2AA/	.	.	.	2c/	.
2GG/	.	.	.	2B/	.
1AA/	.	.	.	2A/	.
.	.	.	.	2c/	.
=194-	=194-	=194-	=194-	=194-	=194-
1E\;	.	.	.	0B/;	-men
1EE/;	-men	.	.	.	.
==-	==-	==-	==-	==-	==-
*-	*-	*-	*-	*-	*-
!!!system-decoration: s1,s2,s3
!!!AIN: 1 bass 1 empty 1 tenor
!!!ENC: Andrzej Borzym
!!!END: 2022-01-02
!!!ENC: Leszek Kubiak
!!!END: 2022-01-04
